src/topics/icons/bowtie.svg

<svg height="250" preserveAspectRatio="xMidYMid" viewBox="0 0 256 250" width="256" xmlns="http://www.w3.org/2000/svg"><path d="m256 0-127.999 106.493-128.001-106.493v249.817l128.001-106.492 127.999 106.492zm-105.865 124.908 77.552-64.521v129.042zm-121.822-64.521 77.553 64.521-77.553 64.521z" fill="#333"/></svg>

<?xml version="1.0" encoding="UTF-8" standalone="no"?>
<svg width="256px" height="250px" viewBox="0 0 256 250" version="1.1" xmlns="http://www.w3.org/2000/svg" xmlns:xlink="http://www.w3.org/1999/xlink" preserveAspectRatio="xMidYMid">
    <g>
        <path d="M256,0 L128.001,106.493 L0,0 L0,249.817 L128.001,143.325 L256,249.817 L256,0 Z M150.135,124.908 L227.687,60.387 L227.687,189.429 L150.135,124.908 Z M28.313,60.387 L105.866,124.908 L28.313,189.429 L28.313,60.387 Z" fill="#333333"></path>
    </g>
</svg>
